X:1
T:Bredon Hill and Other Songs
T:When the Lad for Longing Sighs
T:Bredon Hill and Other Songs
T:George Butterworth
T:3. When the Lad for Longing Sighs
T:Alfred Edward Housman
T:Creative Commons copyright waiver (CC0 1.0 Universal)
T:Creative Commons copyright waiver (CC0 1.0 Universal)
C:George Butterworth
Z:Alfred Edward Housman
Z:Creative Commons copyright waiver (CC0 1.0 Universal)
%%score 1 { ( 2 5 ) | ( 3 4 ) }
L:1/8
Q:1/4=114
M:4/4
K:G
V:1 treble nm="Voice"
V:2 treble nm="Piano"
V:5 treble 
V:3 bass 
V:4 bass 
V:1
"^Moderato."!p! B3 A!<(! B2 c2 | e2!<)!!>(! d2 B4!>)! | A4- A!<(! G A B!<)! |!>(! d3 B A4!>)! | %4
w: When the lad for|long- ing sighs,|Mute _ and dull of|cheer and pale,|
 B3 A!<(! B2 e2!<)! | d2!>(! (BA) !breath!G4!>)! | A3 G A2 B2 | %7
w: If at death’s own|door he * lies,|Mai- den, you can|
[Q:1/4=112] (AG) E2 !breath!!fermata!E4 ||!pp![Q:1/4=114] B3 A B2!<(! c2 | %9
w: heal * his ail.|Lo- vers’ ills are|
 e3!<)!!>(! d B2!>)! z G | D4 D3!<(! D | E2!<)!!>(! D2 D2!>)! z D | d4 d2 z D | E2 G2 B4 | %14
w: all to buy: The|wan look, the|hol- low tone, The|hung head, the|sunk- en eye,|
[Q:1/4=112]!mp!!<(! c3 B!<)!"^poco rit."[Q:1/4=110] c2 d2 | %15
w: You can have them|
[Q:1/4=108]!>(! (cB) (AG) !breath!!fermata!E4!>)! |!mf![Q:1/4=114] B3 A B3 A | G3 A B4 | %18
w: for _ your * own.|Buy them, buy them:|eve and morn|
 A3 G A3 B | d3 B A4 |[Q:1/4=112]!mp!!>(! B3 A[Q:1/4=110]"^rit. e dim." B2 G2 | %21
w: Lo- vers’ ills are|all to sell,|Then you can lie|
[Q:1/4=106] D2 (FA) !breath!!fermata!G4!>)! | %22
w: down for * lorn;|
"^Più lento"[Q:1/4=100] z2!p!!<(! E E!<)!!>(! (ed) B2 | (AG) E2!>)! E4- |!pp! E2 z2 z4 | z8 | z8 |] %27
w: But the lo- * ver|will * be well.|_|||
V:2
!p! (G3 F G2 A2 | F4 G2 E2) | (F3 E F3 G | E4 F2 c2 | B2) z2 z2!<(! ([EGc]2 | %5
 [DFB]3!<)!!>(! [CFA] !breath![B,EG]4)!>)! |!pp! [CE]8- | [CE]4 !fermata![B,E]4 || %8
!pp! ([GB]3 [FA] [GB]2 [Ac]2 | [ce]3 [Bd] [GB]4) | ([FA]4- [FA][EG][FA][GB] | [Bd]3 [GB] [FA]4) | %12
!<(! ([GB]3 [FA] [GB]2 [ce]2 | [Bd]2 [GB][FA] [EG]3 [DF])!<)! |!p! [CE]8- | [CE]4 !fermata![B,E]4 | %16
"^a tempo""_meno piano"!mp! ([GB]3 [FA]) ([GB]3 [Ac]) | ([ce]2 [Bd][Ac] [GB]4) | %18
 ([FA]3 [EG]) ([FA]3 [GB]) | (d3 B A4) | ([DB]3 [CA]"_rit. e dim." [DB]2 [Ee]2 | %21
 d2 BA !breath!!fermata!G4) |!p! ([CA]3 [B,G] [CA]2"_colla voce" [DB]2 | [Ec]3 [Fd] [Ge]4-) | %24
 ([G-e]4 [Gg]4) |!>(! z8!>)! | z8 |] %27
V:3
 (B,3 A, B,2 C2 | A,4 B,2 G,2) | (A,3 G, A,3 B, | G,4 A,2 E2 | [G,D]2) z2 z2 (C,2 | %5
 D,4 !breath!E,4) | [A,,E,]8- | (E,2 F,2) !fermata!G,4 || z8 | z8 | z8 | z8 | z8 | z8 | [A,,E,]8- | %15
 (E,2 F,2) !fermata!G,4 | z!p! (E,B,C) z (E,B,E) | z (E,F,D) z (G,DE) | z (D,A,B,) z (D,A,D) | %19
 (CB,A,G, F,E,D,C,) | (B,,F,B,) z z (B,CC,) | z (D,DC !breath!!fermata![E,B,]4) | [A,,E,]8- | %23
 [A,,E,]4 [G,,C,]4- | ([G,,C,-]4 [E,,-C,]4) | (E,,8 | E,,,2) z2 z4 |] %27
V:4
 E,8- | E,8 | D,8- | D,8 | x8 | x8 | x8 | A,,4 E,,4 || x8 | x8 | x8 | x8 | x8 | x8 | x8 | %15
 A,,4 E,,4 | x8 | x8 | x8 | x8 | x8 | x D,3 x4 | x8 | x8 | x8 | x8 | x8 |] %27
V:5
 x8 | x8 | x8 | x8 | x8 | x8 | x8 | x8 || x8 | x8 | x8 | x8 | x8 | x8 | x4"_poco rit." x4 | x8 | %16
 x8 | x8 | x8 | (AGFE DGFE) | x8 | F4 G4 | x8 | x8 | x8 | x8 | x8 |] %27

